public/avatar/shoe/96.svg

<svg xmlns:xlink="http://www.w3.org/1999/xlink" height="38.3" width="36.05" xmlns="http://www.w3.org/2000/svg"><use height="18.7" transform="translate(9.75 10.6)" width="21.35" xlink:href="#a"/><defs><g id="a" fill-rule="evenodd"><path d="M5.6-.45q1.55.8 1.7 3 .05 1.55-.5 2.75.75.95-.2 2.15-1.1 1.65-4.65 3.7-3.1 1.8-5.55 2.55-6.05 1.8-9-.6l-1-2.15q-1.85-4.7 4.05-11.7.3-1.4 1.65-2.45 1.35-1.05 2.8-1.05 3.4 0 4.95 2.5l1.75.05q2.1.25 4 1.25" fill="#003440" transform="translate(14.05 4.25)"/><path d="M-.8-.9H.95Q3-.7 4.65.15q2.5 1.25 1.05 4.9.6.85-.2 1.85-2.25 3.05-9.05 5.5-5.4 2-7.9-.65l-.75-1.85q-1.7-4 3.5-10 .65-3.05 3.9-3.05 2.5 0 4 2.25" fill="#006969" transform="translate(14.05 4.25)"/><path d="M-7.7.65q3.05-5.2 6.35-1.5.9 1 .05 2.45-.35.65-.15 1.05.3.45 1.2 0 .95-.55 2.8-1 1.95-.55 2.3-.35.4.15.45.95.05.8-.4 1.15Q.1 5.35-.95 6.45q-4.7 4.7-8.65 4.15-2.25-.25-1.7-2.7.5-1.75 3.6-7.25" fill="#008e89" transform="translate(14.05 4.25)"/><path d="M.6 1Q-.65 1.4-.5.75v-1.1L1.45-.5q1.5.15 1.9.7.3.35-.45.4L.6 1" fill="#002e38" transform="translate(14.05 4.25)"/><path d="M4.9 1.9Q1.2 1.7-.2 3.35-5.15 9.3-6.65 9.8l-2.95.25q-1.7-.25-1.75-1.45l1.45.4q1.8.3 3.4-.45 1.45-.7 3.4-3.25 1.9-2.7 2.65-3.1 1.75-1.1 4.5-.95l.85.05q.35.3 0 .6" fill="#00e0c3" transform="translate(14.05 4.25)"/><path d="M-5.1 5Q-6 7.15-9.05 7.6q-2.9.45-2.45-1.5l1.1-1.9v.65q.2.65 1.15.7L-5.1 5" fill="#006969" transform="translate(14.05 4.25)"/><path d="m-9.95 2.9 1.5-2.6-1.4 4.15q0 .4 1.1.55l1.45-.15q1-.4 3.4-4.15.9-.85 2.1.15Q-3.9 5.1-6.5 5.9l-2.9.5q-1.6-.15-1.35-1.25l.8-2.25" fill="#00f0d1" transform="translate(14.05 4.25)"/><path d="m-6.75-1.7.7-.45 1.8-.35q2.35.4 2.95 2l-1.05.1q-1.6-2.35-4.4-1.3" fill="#00e8ca" transform="translate(14.05 4.25)"/><path d="M5 5.65q1.1.55-.5 1.6L.1 9.65l-3.15 1.3 5-3.2Q4.2 6.05 5 5.65" fill="#5bb2af" transform="translate(14.05 4.25)"/><path d="M.95 8.55q-4.4 3.15-7.05 3.65-2.85.45-4.65-.6l-1.1-1.1 1.35 1 4.35.2q2.35-.5 7.25-3.75l4.2-2.5-4.35 3.1" fill="#002e38" transform="translate(14.05 4.25)"/><path d="M-7.65-.8q.5-.85 2.7-.5 1 .15 1.15 1.1.2.5-.95 1.15-1.25.7-2.3.35-1.45-.45-.6-2.1M5.3 2.65q1 .8-.75 1.2Q1.8 4.5-.55 6.2l-1.6 1.35 3.3-3.35q.8-.5 2.75-.75 1.45-.15 1.4-.8" fill="#5bb2af" transform="translate(14.05 4.25)"/><path d="m-1.2-.4-.65-.5-1.4-1.2-2.9-.05 1-.4L-3-2.5q2.2.85 1.8 2.1" fill="#e5fffc" transform="translate(14.05 4.25)"/><path d="M4.5 1.05Q5.7 2.1 4.3 2.1q-1.7 0-3.25.6l-2.25 1-1.5 1.15.75-1.2q1-1.35 2-1.7 2-.85 2.95-.85l1.5-.05" fill="#dbfffb" transform="translate(14.05 4.25)"/><path d="M-4.55 1.4-3.4.35q.7-.2 1.1 0 .7.15.5.55l-1.3 1.9q.75-1.2.15-1.6l-1.6.2" fill="#e3fffc" transform="translate(14.05 4.25)"/></g></defs></svg>

<?xml version="1.0" encoding="UTF-8" standalone="no"?>
<svg xmlns:xlink="http://www.w3.org/1999/xlink" height="38.3px" width="36.05px" xmlns="http://www.w3.org/2000/svg">
  <g transform="matrix(1.0, 0.0, 0.0, 1.0, 23.8, 14.85)">
    <use height="18.7" transform="matrix(1.0, 0.0, 0.0, 1.0, -14.05, -4.25)" width="21.35" xlink:href="#shape0"/>
  </g>
  <defs>
    <g id="shape0" transform="matrix(1.0, 0.0, 0.0, 1.0, 14.05, 4.25)">
      <path d="M5.6 -0.45 Q7.15 0.35 7.3 2.55 7.35 4.1 6.8 5.3 7.55 6.25 6.6 7.45 5.5 9.1 1.95 11.15 -1.15 12.95 -3.6 13.7 -9.65 15.5 -12.6 13.1 L-13.6 10.95 Q-15.45 6.25 -9.55 -0.75 -9.25 -2.15 -7.9 -3.2 -6.55 -4.25 -5.1 -4.25 -1.7 -4.25 -0.15 -1.75 L1.6 -1.7 Q3.7 -1.45 5.6 -0.45" fill="#003440" fill-rule="evenodd" stroke="none"/>
      <path d="M-0.8 -0.9 L0.95 -0.9 Q3.0 -0.7 4.65 0.15 7.15 1.4 5.7 5.05 6.3 5.9 5.5 6.9 3.25 9.95 -3.55 12.4 -8.95 14.4 -11.45 11.75 L-12.2 9.9 Q-13.9 5.9 -8.7 -0.1 -8.05 -3.15 -4.8 -3.15 -2.3 -3.15 -0.8 -0.9" fill="#006969" fill-rule="evenodd" stroke="none"/>
      <path d="M-7.7 0.65 Q-4.65 -4.55 -1.35 -0.85 -0.45 0.15 -1.3 1.6 -1.65 2.25 -1.45 2.65 -1.15 3.1 -0.25 2.65 0.7 2.1 2.55 1.65 4.5 1.1 4.85 1.3 5.25 1.45 5.3 2.25 5.35 3.05 4.9 3.4 0.1 5.35 -0.95 6.45 -5.65 11.15 -9.6 10.6 -11.85 10.35 -11.3 7.9 -10.8 6.15 -7.7 0.65" fill="#008e89" fill-rule="evenodd" stroke="none"/>
      <path d="M0.6 1.0 Q-0.65 1.4 -0.5 0.75 L-0.5 -0.35 1.45 -0.5 Q2.95 -0.35 3.35 0.2 3.65 0.55 2.9 0.6 L0.6 1.0" fill="#002e38" fill-rule="evenodd" stroke="none"/>
      <path d="M4.9 1.9 Q1.2 1.7 -0.2 3.35 -5.15 9.3 -6.65 9.8 L-9.6 10.05 Q-11.3 9.8 -11.35 8.6 L-9.9 9.0 Q-8.1 9.3 -6.5 8.55 -5.05 7.85 -3.1 5.3 -1.2 2.6 -0.45 2.2 1.3 1.1 4.05 1.25 L4.9 1.3 Q5.25 1.6 4.9 1.9" fill="#00e0c3" fill-rule="evenodd" stroke="none"/>
      <path d="M-5.1 5.0 Q-6.0 7.15 -9.05 7.6 -11.95 8.05 -11.5 6.1 L-10.4 4.2 -10.4 4.85 Q-10.2 5.5 -9.25 5.55 L-5.1 5.0" fill="#006969" fill-rule="evenodd" stroke="none"/>
      <path d="M-9.95 2.9 L-8.45 0.3 -9.85 4.45 Q-9.85 4.85 -8.75 5.0 L-7.3 4.85 Q-6.3 4.45 -3.9 0.7 -3.0 -0.15 -1.8 0.85 -3.9 5.1 -6.5 5.9 L-9.4 6.4 Q-11.0 6.25 -10.75 5.15 L-9.95 2.9" fill="#00f0d1" fill-rule="evenodd" stroke="none"/>
      <path d="M-6.75 -1.7 L-6.05 -2.15 -4.25 -2.5 Q-1.9 -2.1 -1.3 -0.5 L-2.35 -0.4 Q-3.95 -2.75 -6.75 -1.7" fill="#00e8ca" fill-rule="evenodd" stroke="none"/>
      <path d="M5.0 5.65 Q6.1 6.2 4.5 7.25 L0.1 9.65 -3.05 10.95 1.95 7.75 Q4.2 6.05 5.0 5.65" fill="#5bb2af" fill-rule="evenodd" stroke="none"/>
      <path d="M0.95 8.55 Q-3.45 11.7 -6.1 12.2 -8.95 12.65 -10.75 11.6 L-11.85 10.5 -10.5 11.5 -6.15 11.7 Q-3.8 11.2 1.1 7.95 L5.3 5.45 0.95 8.55" fill="#002e38" fill-rule="evenodd" stroke="none"/>
      <path d="M-7.65 -0.8 Q-7.15 -1.65 -4.95 -1.3 -3.95 -1.15 -3.8 -0.2 -3.6 0.3 -4.75 0.95 -6.0 1.65 -7.05 1.3 -8.5 0.85 -7.65 -0.8" fill="#5bb2af" fill-rule="evenodd" stroke="none"/>
      <path d="M5.3 2.65 Q6.3 3.45 4.55 3.85 1.8 4.5 -0.55 6.2 L-2.15 7.55 1.15 4.2 Q1.95 3.7 3.9 3.45 5.35 3.3 5.3 2.65" fill="#5bb2af" fill-rule="evenodd" stroke="none"/>
      <path d="M-1.2 -0.4 L-1.85 -0.9 -3.25 -2.1 -6.15 -2.15 -5.15 -2.55 -3.0 -2.5 Q-0.8 -1.65 -1.2 -0.4" fill="#e5fffc" fill-rule="evenodd" stroke="none"/>
      <path d="M4.5 1.05 Q5.7 2.1 4.3 2.1 2.6 2.1 1.05 2.7 L-1.2 3.7 -2.7 4.85 -1.95 3.65 Q-0.95 2.3 0.05 1.95 2.05 1.1 3.0 1.1 L4.5 1.05" fill="#dbfffb" fill-rule="evenodd" stroke="none"/>
      <path d="M-4.55 1.4 L-3.4 0.35 Q-2.7 0.15 -2.3 0.35 -1.6 0.5 -1.8 0.9 L-3.1 2.8 Q-2.35 1.6 -2.95 1.2 L-4.55 1.4" fill="#e3fffc" fill-rule="evenodd" stroke="none"/>
    </g>
  </defs>
</svg>
